icons/icons/home.svg

<svg width="21" height="20" viewBox="0 0 21 20" fill="none" xmlns="http://www.w3.org/2000/svg">
<path d="M10.3928 3L4.39282 8.80006V15.0001H16.3928V8.80006L10.3928 3ZM15.3928 14.0001H5.39282V9.20005L10.3928 4.4L15.3928 9.20005V14.0001Z" fill="black"/>
<path d="M8.39282 13.0001H9.39282V10.5001H11.3928V13.0001H12.3928V9.50005H8.39282V13.0001Z" fill="black"/>
</svg>

<svg width="21" height="20" viewBox="0 0 21 20" fill="none" xmlns="http://www.w3.org/2000/svg"><path d="m10.4 3-6 5.8V15h12V8.8l-6-5.8Zm5 11h-10V9.2l5-4.8 5 4.8V14Z" fill="#000"/><path d="M8.4 13h1v-2.5h2V13h1V9.5h-4V13Z" fill="#000"/></svg>
